X: 17087
T: Hector The Hero
R: waltz
M: 3/4
K: Amajor
A,2|C3 B, A,2|F2 E2 C2|E6-|E4 A,2|C3 B, A,2|F2 E2 C2|B,6-|B,4 A,2|
C3 B, A,2|F2 E2 C2|E4 A,2|HA4 [A,2F2]|E2 A,2 C2|B,4 A,2|A,6-|A,4||
A2|c3 B A2|f2 e2 c2|e6-|e4 A2|c3 B A2|f2 e2 c2|B6-|B4 A2|
c3 B A2|f2 e2 c2|e4 A2|Ha4 [A2f2]|e2 A2 c2|B4 A2|A6-|A4||
c2|f2 g2 f2|a2 g2 f2|e6-|e4 c2|f2 e2 c2|e2 A2 c2|B6-|B4 c2|
f2 g2 f2|a2 g2 f2|e2 A2 B2|ca- Ha2 f2|e2 A2 c2|B4 A2|A6-|A4||

